WordPressTheme/assets/images/common/icon-diving-pc.svg

<svg width="484" height="59" viewBox="0 0 484 59" fill="none" xmlns="http://www.w3.org/2000/svg">
<path d="M50 29.36C50 33.6533 49.32 37.56 47.96 41.08C46.6 44.6 44.68 47.6133 42.2 50.12C39.72 52.6267 36.7333 54.5733 33.24 55.96C29.7733 57.32 25.9333 58 21.72 58H0.320001V0.679996H21.72C25.9333 0.679996 29.7733 1.37333 33.24 2.76C36.7333 4.12 39.72 6.06667 42.2 8.6C44.68 11.1067 46.6 14.12 47.96 17.64C49.32 21.16 50 25.0667 50 29.36ZM42.04 29.36C42.04 25.84 41.56 22.6933 40.6 19.92C39.64 17.1467 38.28 14.8 36.52 12.88C34.76 10.96 32.6267 9.49333 30.12 8.48C27.6133 7.46667 24.8133 6.96 21.72 6.96H8.08V51.72H21.72C24.8133 51.72 27.6133 51.2133 30.12 50.2C32.6267 49.1867 34.76 47.7333 36.52 45.84C38.28 43.92 39.64 41.5733 40.6 38.8C41.56 36.0267 42.04 32.88 42.04 29.36ZM112.139 58H104.379V0.679996H112.139V58ZM216.601 0.679996L193.241 58H186.281L162.921 0.679996H169.121C169.815 0.679996 170.375 0.85333 170.801 1.2C171.228 1.54666 171.548 1.98666 171.761 2.52L187.921 42.96C188.268 43.8667 188.601 44.8533 188.921 45.92C189.268 46.9867 189.575 48.1067 189.841 49.28C190.108 48.1067 190.388 46.9867 190.681 45.92C190.975 44.8533 191.295 43.8667 191.641 42.96L207.761 2.52C207.921 2.06666 208.228 1.65333 208.681 1.28C209.161 0.879996 209.735 0.679996 210.401 0.679996H216.601ZM275.102 58H267.342V0.679996H275.102V58ZM379.404 0.679996V58H375.524C374.91 58 374.39 57.8933 373.964 57.68C373.564 57.4667 373.164 57.1067 372.764 56.6L339.604 13.4C339.657 14.0667 339.697 14.72 339.724 15.36C339.75 16 339.764 16.6 339.764 17.16V58H332.964V0.679996H336.964C337.31 0.679996 337.604 0.706663 337.844 0.759995C338.084 0.786663 338.297 0.85333 338.484 0.959995C338.67 1.04 338.857 1.17333 339.044 1.36C339.23 1.52 339.43 1.73333 339.644 2L372.804 45.16C372.75 44.4667 372.697 43.8 372.644 43.16C372.617 42.4933 372.604 41.8667 372.604 41.28V0.679996H379.404ZM483.818 30.44V52.44C480.938 54.52 477.858 56.08 474.578 57.12C471.324 58.1333 467.751 58.64 463.858 58.64C459.244 58.64 455.084 57.9333 451.378 56.52C447.671 55.08 444.498 53.08 441.858 50.52C439.244 47.9333 437.231 44.84 435.817 41.24C434.404 37.64 433.698 33.68 433.698 29.36C433.698 24.9867 434.378 21 435.738 17.4C437.124 13.8 439.084 10.72 441.618 8.16C444.151 5.57333 447.231 3.57333 450.858 2.16C454.484 0.746663 458.538 0.0399952 463.018 0.0399952C465.284 0.0399952 467.391 0.213329 469.338 0.559996C471.284 0.879998 473.084 1.36 474.738 2C476.391 2.61333 477.924 3.37333 479.338 4.28C480.751 5.16 482.071 6.16 483.298 7.28L481.098 10.8C480.751 11.3333 480.298 11.68 479.738 11.84C479.204 11.9733 478.604 11.84 477.938 11.44C477.298 11.0667 476.564 10.6133 475.738 10.08C474.911 9.54666 473.898 9.04 472.698 8.56C471.524 8.05333 470.124 7.62666 468.498 7.28C466.898 6.93333 464.991 6.76 462.778 6.76C459.551 6.76 456.631 7.29333 454.018 8.36C451.404 9.4 449.178 10.9067 447.338 12.88C445.498 14.8267 444.084 17.2 443.098 20C442.111 22.7733 441.618 25.8933 441.618 29.36C441.618 32.96 442.124 36.1867 443.138 39.04C444.178 41.8667 445.644 44.28 447.538 46.28C449.458 48.2533 451.778 49.76 454.498 50.8C457.218 51.84 460.271 52.36 463.658 52.36C466.324 52.36 468.684 52.0667 470.738 51.48C472.818 50.8667 474.844 50.0267 476.818 48.96V36.36H467.898C467.391 36.36 466.978 36.2133 466.658 35.92C466.364 35.6267 466.218 35.2667 466.218 34.84V30.44H483.818Z" fill="white"/>
</svg>

<svg width="484" height="59" fill="none" xmlns="http://www.w3.org/2000/svg"><path d="M50 29.36c0 4.293-.68 8.2-2.04 11.72-1.36 3.52-3.28 6.533-5.76 9.04-2.48 2.507-5.467 4.453-8.96 5.84C29.773 57.32 25.933 58 21.72 58H.32V.68h21.4c4.213 0 8.053.693 11.52 2.08 3.493 1.36 6.48 3.307 8.96 5.84 2.48 2.507 4.4 5.52 5.76 9.04C49.32 21.16 50 25.067 50 29.36zm-7.96 0c0-3.52-.48-6.667-1.44-9.44-.96-2.773-2.32-5.12-4.08-7.04-1.76-1.92-3.893-3.387-6.4-4.4-2.507-1.013-5.307-1.52-8.4-1.52H8.08v44.76h13.64c3.093 0 5.893-.507 8.4-1.52 2.507-1.013 4.64-2.467 6.4-4.36 1.76-1.92 3.12-4.267 4.08-7.04.96-2.773 1.44-5.92 1.44-9.44zM112.139 58h-7.76V.68h7.76V58zM216.601.68L193.241 58h-6.96L162.921.68h6.2c.694 0 1.254.173 1.68.52.427.347.747.787.96 1.32l16.16 40.44c.347.907.68 1.893 1 2.96a38.13 38.13 0 01.92 3.36 78.48 78.48 0 01.84-3.36c.294-1.067.614-2.053.96-2.96l16.12-40.44c.16-.453.467-.867.92-1.24.48-.4 1.054-.6 1.72-.6h6.2zM275.102 58h-7.76V.68h7.76V58zM379.404.68V58h-3.88c-.614 0-1.134-.107-1.56-.32-.4-.213-.8-.573-1.2-1.08l-33.16-43.2c.053.667.093 1.32.12 1.96.026.64.04 1.24.04 1.8V58h-6.8V.68h4c.346 0 .64.027.88.08.24.027.453.093.64.2.186.08.373.213.56.4.186.16.386.373.6.64l33.16 43.16c-.054-.693-.107-1.36-.16-2a46.559 46.559 0 01-.04-1.88V.68h6.8zm104.414 29.76v22c-2.88 2.08-5.96 3.64-9.24 4.68-3.254 1.013-6.827 1.52-10.72 1.52-4.614 0-8.774-.707-12.48-2.12-3.707-1.44-6.88-3.44-9.52-6-2.614-2.587-4.627-5.68-6.041-9.28-1.413-3.6-2.119-7.56-2.119-11.88 0-4.373.68-8.36 2.04-11.96 1.386-3.6 3.346-6.68 5.88-9.24 2.533-2.587 5.613-4.587 9.24-6 3.626-1.413 7.68-2.12 12.16-2.12 2.266 0 4.373.173 6.32.52 1.946.32 3.746.8 5.4 1.44a23.879 23.879 0 014.6 2.28c1.413.88 2.733 1.88 3.96 3l-2.2 3.52c-.347.533-.8.88-1.36 1.04-.534.133-1.134 0-1.8-.4a57.953 57.953 0 01-2.2-1.36c-.827-.533-1.84-1.04-3.04-1.52-1.174-.507-2.574-.933-4.2-1.28-1.6-.347-3.507-.52-5.72-.52-3.227 0-6.147.533-8.76 1.6-2.614 1.04-4.84 2.547-6.68 4.52-1.84 1.947-3.254 4.32-4.24 7.12-.987 2.773-1.48 5.893-1.48 9.36 0 3.6.506 6.827 1.52 9.68 1.04 2.827 2.506 5.24 4.4 7.24 1.92 1.973 4.24 3.48 6.96 4.52 2.72 1.04 5.773 1.56 9.16 1.56 2.666 0 5.026-.293 7.08-.88a31.511 31.511 0 006.08-2.52v-12.6h-8.92c-.507 0-.92-.147-1.24-.44a1.466 1.466 0 01-.44-1.08v-4.4h17.6z" fill="#fff"/></svg>
